usr/share/icons/bloom/16x16/panel/network-wired-no-route.svg

<svg xmlns="http://www.w3.org/2000/svg" width="16" height="16" version="1.1">
 <defs>
  <style id="current-color-scheme" type="text/css">
   .ColorScheme-Text { color:#4b4646; } .ColorScheme-Highlight { color:#4285f4; } .ColorScheme-NeutralText { color:#ff9800; } .ColorScheme-PositiveText { color:#4caf50; } .ColorScheme-NegativeText { color:#f44336; }
  </style>
 </defs>
 <path style="fill:currentColor" class="ColorScheme-Text" d="m 0.99999995,1.0000001 c 0,0 -0.99999995,0 -0.99999995,1.0000001 V 12 c 0,1 0.99999995,1 0.99999995,1 H 3 l 0.9999999,1 H 11 l 1,-1 h 2 c 0,0 1,0.13 1,-1 V 2.0000002 C 15,1.0000001 14,1.0000001 14,1.0000001 Z m 7.00000045,3 c 1.1,0 1.9999996,0.895 1.9999996,2 0,1.1050001 -0.8999996,2.0000001 -1.9999996,2.0000001 V 8.9999999 H 7.0000002 V 7.0000001 h 1.0000002 c 0.55,0 1,-0.448 1,-1 0,-0.5519999 -0.45,-1 -1,-1 -0.5500001,0 -1.0000002,0.4480001 -1.0000002,1 h -1 c 0,-1.105 0.9000001,-2 2.0000002,-2 z M 7.0000002,10 h 1.0000002 v 1 H 7.0000002 Z"/>
</svg>

<svg xmlns="http://www.w3.org/2000/svg" width="16" height="16" version="1.1">
 <defs>
  <style id="current-color-scheme" type="text/css">
   .ColorScheme-Text { color:#4b4646; } .ColorScheme-Highlight { color:#4285f4; } .ColorScheme-NeutralText { color:#ff9800; } .ColorScheme-PositiveText { color:#4caf50; } .ColorScheme-NegativeText { color:#f44336; }
  </style>
 </defs>
 <path style="fill:currentColor" class="ColorScheme-Text" d="M 2,2 C 2,2 1,2 1,3 V 12 C 1,13 2,13 2,13 H 4 L 5,14 H 11 L 12,13 H 14 C 14,13 15,13.13 15,12 V 3 C 15,2 14,2 14,2 Z M 8,4 C 9.1,4 10,4.9 10,6 10,7.11 9.1,8 8,8 V 9 H 7 V 7 H 8 C 8.55,7 9,6.55 9,6 9,5.45 8.55,5 8,5 7.45,5 7,5.45 7,6 H 6 C 6,4.9 6.9,4 8,4 Z M 7.5,9.75 C 7.91,9.75 8.25,10.09 8.25,10.5 8.25,10.92 7.91,11.25 7.5,11.25 7.09,11.25 6.75,10.92 6.75,10.5 6.75,10.09 7.09,9.75 7.5,9.75 Z"/>
</svg>
